blockchains/elrond/assets/KRO-df97ec/logo.svg

<svg fill="none" height="238" viewBox="0 0 238 238" width="238" xmlns="http://www.w3.org/2000/svg" xmlns:xlink="http://www.w3.org/1999/xlink"><linearGradient id="a"><stop offset="0" stop-color="#f7a259"/><stop offset="1" stop-color="#f95412"/></linearGradient><linearGradient id="b" gradientUnits="userSpaceOnUse" x1="1296.96" x2="1296.96" xlink:href="#a" y1="95.9514" y2="4301.35"/><linearGradient id="c" gradientUnits="userSpaceOnUse" x1="1296.96" x2="1296.96" xlink:href="#a" y1="74.5125" y2="4279.91"/><linearGradient id="d" gradientUnits="userSpaceOnUse" x1="1296.96" x2="1296.96" xlink:href="#a" y1="53.073" y2="4258.47"/><linearGradient id="e" gradientUnits="userSpaceOnUse" x1="5955.88" x2="5955.88" y1="71.9096" y2="13246.5"><stop offset="0" stop-color="#ff986e"/><stop offset="1" stop-color="#ff672a"/></linearGradient><linearGradient id="f" gradientUnits="userSpaceOnUse" x1="1296.42" x2="4175.01" y1="992.716" y2="4518.15"><stop offset="0"/><stop offset="1" stop-opacity="0"/></linearGradient><circle cx="119.564" cy="118.436" fill="#161616" r="117.308"/><g clip-rule="evenodd" fill-rule="evenodd"><path d="m60.084 138.005 24.7376-27.373v-14.6806l-24.7376 28.5276z" fill="url(#b)"/><path d="m60.084 116.566 24.7376-27.3726v-14.6809l-24.7376 28.5275z" fill="url(#c)"/><path d="m60.084 95.127 24.7376-27.3731v-14.6809l-24.7376 28.5278z" fill="url(#d)"/><path d="m60.084 185.007 44.833-49.207 39.415 49.207h33.668l-56.587-65.967 56.587-65.967h-31.551l-86.365 97.186z" fill="url(#e)"/><path d="m104.612 135.842 16.431-16.802 33.044 38.771-18.837 16.476z" fill="url(#f)" opacity=".368431"/></g></svg>

<svg width="238" height="238" viewBox="0 0 238 238" fill="none" xmlns="http://www.w3.org/2000/svg">
<circle cx="119.564" cy="118.436" r="117.308" fill="#161616"/>
<path fill-rule="evenodd" clip-rule="evenodd" d="M60.084 138.005L84.8216 110.632V95.9514L60.084 124.479V138.005Z" fill="url(#paint0_linear_105_11275)"/>
<path fill-rule="evenodd" clip-rule="evenodd" d="M60.084 116.566L84.8216 89.1934V74.5125L60.084 103.04V116.566Z" fill="url(#paint1_linear_105_11275)"/>
<path fill-rule="evenodd" clip-rule="evenodd" d="M60.084 95.127L84.8216 67.7539V53.073L60.084 81.6008V95.127Z" fill="url(#paint2_linear_105_11275)"/>
<path fill-rule="evenodd" clip-rule="evenodd" d="M60.084 185.007L104.917 135.8L144.332 185.007H178L121.413 119.04L178 53.073H146.449L60.084 150.259L60.084 185.007Z" fill="url(#paint3_linear_105_11275)"/>
<path opacity="0.368431" fill-rule="evenodd" clip-rule="evenodd" d="M104.612 135.842L121.043 119.04L154.087 157.811L135.25 174.287L104.612 135.842Z" fill="url(#paint4_linear_105_11275)"/>
<defs>
<linearGradient id="paint0_linear_105_11275" x1="1296.96" y1="95.9514" x2="1296.96" y2="4301.35" gradientUnits="userSpaceOnUse">
<stop stop-color="#F7A259"/>
<stop offset="1" stop-color="#F95412"/>
</linearGradient>
<linearGradient id="paint1_linear_105_11275" x1="1296.96" y1="74.5125" x2="1296.96" y2="4279.91" gradientUnits="userSpaceOnUse">
<stop stop-color="#F7A259"/>
<stop offset="1" stop-color="#F95412"/>
</linearGradient>
<linearGradient id="paint2_linear_105_11275" x1="1296.96" y1="53.073" x2="1296.96" y2="4258.47" gradientUnits="userSpaceOnUse">
<stop stop-color="#F7A259"/>
<stop offset="1" stop-color="#F95412"/>
</linearGradient>
<linearGradient id="paint3_linear_105_11275" x1="5955.88" y1="71.9096" x2="5955.88" y2="13246.5" gradientUnits="userSpaceOnUse">
<stop stop-color="#FF986E"/>
<stop offset="1" stop-color="#FF672A"/>
</linearGradient>
<linearGradient id="paint4_linear_105_11275" x1="1296.42" y1="992.716" x2="4175.01" y2="4518.15" gradientUnits="userSpaceOnUse">
<stop/>
<stop offset="1" stop-opacity="0"/>
</linearGradient>
</defs>
</svg>
